app/assets/images/sephora_style_guide/svgs/kakao.svg

<?xml version="1.0" encoding="UTF-8"?>
<svg width="29px" height="29px" viewBox="0 0 29 29" version="1.1" xmlns="http://www.w3.org/2000/svg" xmlns:xlink="http://www.w3.org/1999/xlink">
    <!-- Generator: Sketch 55.2 (78181) - https://sketchapp.com -->
    <title>kakao</title>
    <desc>Created with Sketch.</desc>
    <g id="Registration-Page-1.0" stroke="none" stroke-width="1" fill="none" fill-rule="evenodd">
        <g id="1440-Registration" transform="translate(-1127.000000, -980.000000)" fill="#000000">
            <g id="Group-8" transform="translate(165.000000, 836.000000)">
                <g id="Group-4" transform="translate(726.000000, 143.000000)">
                    <g id="kakao" transform="translate(236.000000, 1.000000)">
                        <g id="Group">
                            <path d="M14.1428571,0 C6.34285714,0 0,6.34285714 0,14.1428571 C0,21.9428571 6.34285714,28.2857143 14.1428571,28.2857143 C21.9428571,28.2857143 28.2857143,21.9428571 28.2857143,14.1428571 C28.2857143,6.34285714 21.9428571,9.51619735e-16 14.1428571,9.51619735e-16 L14.1428571,0 Z M14.1428571,26.5714286 C7.28571429,26.5714286 1.71428571,21 1.71428571,14.1428571 C1.71428571,7.28571429 7.28571429,1.71428571 14.1428571,1.71428571 C21,1.71428571 26.5714286,7.28571429 26.5714286,14.1428571 C26.5714286,21 21,26.5714286 14.1428571,26.5714286 Z" id="Shape"></path>
                            <path d="M13.9997953,7 C9.5812075,7 6,9.69043044 6,13.0088339 C6,15.1185558 7.44814022,16.9731606 9.63797773,18.0452119 L9.03338354,21 L12.493094,18.9098932 C12.98118,18.980054 13.4843859,19.0178125 13.9997953,19.0178125 C18.4181274,19.0178125 22,16.3273821 22,13.0088098 C22,9.69043044 18.4181274,7 13.9997953,7 Z" id="kakaoLogo" fill-rule="nonzero"></path>
                        </g>
                    </g>
                </g>
            </g>
        </g>
    </g>
</svg>

<svg width="29" height="29" xmlns="http://www.w3.org/2000/svg"><g fill="#000" fill-rule="evenodd"><path d="M14.143 0C6.343 0 0 6.343 0 14.143c0 7.8 6.343 14.143 14.143 14.143 7.8 0 14.143-6.343 14.143-14.143C28.286 6.343 21.943 0 14.143 0zm0 26.571C7.286 26.571 1.714 21 1.714 14.143c0-6.857 5.572-12.429 12.429-12.429S26.57 7.286 26.57 14.143 21 26.57 14.143 26.57z"/><path d="M14 7C9.58 7 6 9.69 6 13.009c0 2.11 1.448 3.964 3.638 5.036L9.033 21l3.46-2.09c.488.07.991.108 1.507.108 4.418 0 8-2.69 8-6.01C22 9.69 18.418 7 14 7z" fill-rule="nonzero"/></g></svg>
